packages/icons/svg/Fill/bell-off.svg

<svg fill="none" height="24" viewBox="0 0 24 24" width="24" xmlns="http://www.w3.org/2000/svg"><path clip-rule="evenodd" d="m7.12698 4.29859 1.466 1.465 9.52802 9.52901 1.993 1.993.306.305c.189-.163.353-.358.453-.6.255-.613.116-1.314-.352-1.783l-1.801-1.804v-4.46701c0-3.481-2.502-6.438-5.821-6.877-1.921-.256-3.86102.331-5.31602 1.607-.194.17-.376.351-.548.54zm6.87302 14.04241c0 .899-.916 1.659-2 1.659s-2-.76-2-1.659v-.341h4zm1.879.3661-.586-.586-1.345-1.344-.069-.07-7.30301-7.30304-1.264-1.264c-.017.195-.032.39-.032.587l-.001 4.67704-1.8 1.804c-.469.469-.608 1.169-.354 1.782.255.613.848 1.01 1.512 1.01h3.363v.341c0 2.018 1.794 3.659 4.00001 3.659 2.042 0 3.712-1.411 3.951-3.221zm3.528-.7144 1.3 1.3c.391.391.391 1.023 0 1.414-.195.195-.451.293-.707.293s-.512-.098-.707-.293l-2.707-2.707-.586-.586-1.345-1.345-.069-.069-7.30301-7.30301-1.752-1.751-2.238-2.239c-.391-.391-.391-1.023 0-1.414s1.023-.391 1.414 0l1.713 1.713 1.466 1.465 9.52801 9.52901z" fill="#6b7280" fill-rule="evenodd"/></svg>

<svg width="24" height="24" viewBox="0 0 24 24" fill="none" xmlns="http://www.w3.org/2000/svg">
<g id="Icon/Fill/bell-off">
<path id="Mask" fill-rule="evenodd" clip-rule="evenodd" d="M7.12709 4.29877L8.59309 5.76377L18.1211 15.2928L20.1141 17.2858L20.4201 17.5908C20.6091 17.4278 20.7731 17.2328 20.8731 16.9908C21.1281 16.3778 20.9891 15.6768 20.5211 15.2078L18.7201 13.4038V8.93677C18.7201 5.45577 16.2181 2.49877 12.8991 2.05977C10.9781 1.80377 9.03809 2.39077 7.58309 3.66677C7.38909 3.83677 7.20709 4.01777 7.03509 4.20677L7.12709 4.29877ZM14.0001 18.3413C14.0001 19.2403 13.0841 20.0003 12.0001 20.0003C10.9161 20.0003 10.0001 19.2403 10.0001 18.3413V18.0003H14.0001V18.3413ZM15.8791 18.7073L15.2931 18.1213L13.9481 16.7773L13.8791 16.7073L6.57609 9.40427L5.31209 8.14027C5.29509 8.33527 5.28009 8.53027 5.28009 8.72727L5.27909 13.4043L3.47909 15.2083C3.01009 15.6773 2.87109 16.3773 3.12509 16.9903C3.38009 17.6033 3.97309 18.0003 4.63709 18.0003H8.00009V18.3413C8.00009 20.3593 9.79409 22.0003 12.0001 22.0003C14.0421 22.0003 15.7121 20.5893 15.9511 18.7793L15.8791 18.7073ZM19.4071 17.993L20.7071 19.293C21.0981 19.684 21.0981 20.316 20.7071 20.707C20.5121 20.902 20.2561 21 20.0001 21C19.7441 21 19.4881 20.902 19.2931 20.707L16.5861 18L16.0001 17.414L14.6551 16.069L14.5861 16L7.28309 8.69697L5.53109 6.94597L3.29309 4.70697C2.90209 4.31597 2.90209 3.68397 3.29309 3.29297C3.68409 2.90197 4.31609 2.90197 4.70709 3.29297L6.42009 5.00597L7.88609 6.47097L17.4141 16L19.4071 17.993Z" fill="#000000"/>
</g>
</svg>
